!!!COM: Anonymous
!!!CDT: [?]
!!!OTL: Cesarzewno Królewno
!!!TXO: Polish
!!!ODT: 
!!!GTL: Hymnbook E
!!!ARL: Opactwo św. Wojciecha, Staniątki 
!!!voices:	3
**kern	**kern	**text	**text	**kern	**text	**text
*staff3	*staff2	*staff2	*staff2	*staff1	*staff1	*staff1
*I"Basso	*I"Canto II	*	*	*I"Canto I	*	*
=1-	=1-	=1-	=1-	=1-	=1-	=1-
*clefF4	*clefG2	*	*	*clefG2	*	*
*k[]	*k[]	*	*	*k[]	*	*
*met(c|)	*met(c|)	*	*	*met(c|)	*	*
*M2/2	*M2/2	*	*	*M2/2	*	*
4.E	4.e	Ce-	Broń	4.g	Ce-	Broń
8D#	8f#	-sa-	nas	8a	-sa-	nas
4E	4g	-rze-	od	4b	-rze-	od
4C	4e	-wno	po-	4g	-wno	po-
=2	=2	=2	=2	=2	=2	=2
4.BB	4.d#	kr&oacute;-	-wie-	4.f#	kr&oacute;-	-wie-
8BB	8e	-le-	-trza	8g	-le-	-trza
4AA	8f#L	-wno	mo-	8aL	-wno	mo-
.	8gJ	.	.	8bJ	.	.
4E	4e	nie-	-ro-	4g	nie-	-ro-
=3	=3	=3	=3	=3	=3	=3
2BB	4e	-bie-	-we-	2f#	-bie-	-we-
.	4d#	.	.	.	.	.
2E	2e	-ska	-go	2e	-ska	-go
=4	=4	=4	=4	=4	=4	=4
4E	4g#	Wiel-	Proś	4b	Wiel-	Proś
8D#L	8a#L	-ka	za	8cc#L	-ka	za
8DniJ	8bJ	świa-	nas	8ddJ	świa-	nas
4C#	4cc#	-tło-	Sy-	4ee	-tło-	Sy-
8BBL	8bL	-ści	-na-	8ddL	-ści	-na-
16DL	8bJ	a-	-czka	8ddJ	a-	-czka
16EJJ	.	.	.	.	.	.
=5	=5	=5	=5	=5	=5	=5
4F#	4b	-niel-	swe-	2cc#	-niel-	swe-
4FF#	4a#	.	.	.	.	.
2BB	2b	-ska	-go	2b	-ska	-go
=6:|!|:	=6:|!|:	=6:|!|:	=6:|!|:	=6:|!|:	=6:|!|:	=6:|!|:
*M3/2	*M3/2	*	*	*M3/2	*	*
4G	2b	U-	Zbaw	2dd	U-	Zbaw
4D	.	.	.	.	.	.
4E	2b	-proś	lud	2dd	-proś	lud
4F#	.	.	.	.	.	.
2G	2b	nam	du-	2dd	nam	du-
=7	=7	=7	=7	=7	=7	=7
2GG	2b	u	-cho-	2dd	u	-cho-
4C	4cc	Sy-	-wny	4ee	Sy-	-wny
4D	4b	.	.	4dd	.	.
4E	4a	-na	i	4cc	-na	i
4C	4g	.	.	4b	.	.
=8	=8	=8	=8	=8	=8	=8
1D	2f#	swe-	świe-	1a	swe-	świe-
.	4g	.	.	.	.	.
.	4a	.	.	.	.	.
2GG	2b	-go	-cki	2g	-go	-cki
=9	=9	=9	=9	=9	=9	=9
4D	1f#	szczę-	od-	1a	szczę-	od-
4E	.	.	.	.	.	.
4D	.	.	.	.	.	.
4C	.	.	.	.	.	.
2BB	2g	-ście	-dal	2b	-ście	-dal
=10	=10	=10	=10	=10	=10	=10
2.C	1e	zdro-	od	1g	zdro-	od
4BB	.	.	.	.	.	.
2AA	2f#	-wie	nas	2a	-wie	nas
=11	=11	=11	=11	=11	=11	=11
2.GG	2g	cza-	gniew	2b	cza-	gniew
.	2f#	.	.	2a	.	.
8AAL	.	.	.	.	.	.
8BBJ	.	.	.	.	.	.
2C	2e	-su	sw&oacute;j	2g	-su	sw&oacute;j
=12	=12	=12	=12	=12	=12	=12
2AA	2e	te-	Bo-	1.f#	te-	Bo-
1BB	4f#	.	.	.	.	.
.	4e	.	.	.	.	.
.	2d#	.	.	.	.	.
=13	=13	=13	=13	=13	=13	=13
1.E	1.e	-go	-ski.	1.e	-go	-ski.
==:|!	==:|!	==:|!	==:|!	==:|!	==:|!	==:|!
*-	*-	*-	*-	*-	*-	*-
!!!GTL: Hymnbook E
!!!EFL: 104/117
!!!YEM: Creative Commons CC/BY/NC/SA 4.0
!!!ENC: Marcin Konik
!!!END: 
!!!EED: Marcin Konik
!!!EEV: 
!!!ONB: Translated from MusicXML and edited by Marcin Konik
!!!CharacterEncoding: utf-8
!!!RDF**kern: l=long note in original notation
!!!RDF**kern: i=editorial accidental
!!muse2ps: z14jc180F
